svgs/solid/trash-list.svg

<svg xmlns="http://www.w3.org/2000/svg" viewBox="0 0 640 512"><!--! Font Awesome Pro 6.4.2 by @fontawesome - https://fontawesome.com License - https://fontawesome.com/license (Commercial License) Copyright 2023 Fonticons, Inc. --><path d="M147.8 0H268.2c12.1 0 23.2 6.8 28.6 17.7L304 32h80c17.7 0 32 14.3 32 32s-14.3 32-32 32H32C14.3 96 0 81.7 0 64S14.3 32 32 32h80l7.2-14.3C124.6 6.8 135.7 0 147.8 0zM32 128H384L362.8 467c-1.6 25.3-22.6 45-47.9 45H101.1c-25.3 0-46.3-19.7-47.9-45L32 128zm448 0H608c17.7 0 32 14.3 32 32s-14.3 32-32 32H480c-17.7 0-32-14.3-32-32s14.3-32 32-32zm0 128h96c17.7 0 32 14.3 32 32s-14.3 32-32 32H480c-17.7 0-32-14.3-32-32s14.3-32 32-32zM448 416c0-17.7 14.3-32 32-32h32c17.7 0 32 14.3 32 32s-14.3 32-32 32H480c-17.7 0-32-14.3-32-32z"/></svg>

<svg xmlns="http://www.w3.org/2000/svg" viewBox="0 0 640 512"><!--! Font Awesome Pro 6.1.1 by @fontawesome - https://fontawesome.com License - https://fontawesome.com/license (Commercial License) Copyright 2022 Fonticons, Inc. --><path d="M268.2 0C280.3 0 291.4 6.848 296.8 17.69L304 32H384C401.7 32 416 46.33 416 64C416 81.67 401.7 96 384 96H32C14.33 96 0 81.67 0 64C0 46.33 14.33 32 32 32H112L119.2 17.69C124.6 6.848 135.7 0 147.8 0H268.2zM31.1 128H384L362.8 466.1C361.2 492.3 340.3 512 314.9 512H101.1C75.75 512 54.77 492.3 53.19 466.1L31.1 128zM608 128C625.7 128 640 142.3 640 160C640 177.7 625.7 192 608 192H480C462.3 192 448 177.7 448 160C448 142.3 462.3 128 480 128H608zM576 256C593.7 256 608 270.3 608 288C608 305.7 593.7 320 576 320H480C462.3 320 448 305.7 448 288C448 270.3 462.3 256 480 256H576zM448 416C448 398.3 462.3 384 480 384H512C529.7 384 544 398.3 544 416C544 433.7 529.7 448 512 448H480C462.3 448 448 433.7 448 416z"/></svg>
